images/patterns/patt_3-6.svg

<svg width="201" height="6"><path d="M1 0H0v6h1V0zm4 0H4v6h1V0zm3 0h1v6H8V0zm27 0h-1v6h1V0zm86 0h1v6h-1V0zm-3 0h-1v6h1V0zm82 6h1V0h-1v6zm-98 0h-1V0h1v6z" fill="current-color"/></svg>

<svg width="201" height="6"><path d="M1 0H0V6H1V0ZM5 0H4V6H5V0ZM8 0H9V6H8V0ZM35 0H34V6H35V0ZM121 0H122V6H121V0ZM118 0H117V6H118V0ZM200 6H201V0H200V6ZM102 6H101V0H102V6Z" fill="current-color"/>
</svg>
